; COBRA Vertebra - T5 V11
; Material: Rohacell IG-51 20.0mm
; Tool: 2.0mm carbide end mill

G21
G90
G17
G54

; Safe start
G0 Z50
G0 X0 Y0
M3 S20000
G4 P2000

; Cut outer profile

; Pass 1/4, Z=-5.0
G0 X19.000 Y0
G1 Z-5.000 F500
G2 I-19.000 J0 F1500

; Pass 2/4, Z=-10.0
G0 X19.000 Y0
G1 Z-10.000 F500
G2 I-19.000 J0 F1500

; Pass 3/4, Z=-15.0
G0 X19.000 Y0
G1 Z-15.000 F500
G2 I-19.000 J0 F1500

; Pass 4/4, Z=-20.0
G0 X19.000 Y0
G1 Z-20.000 F500
G2 I-19.000 J0 F1500

; Battery cavities

; Cavity 1
G0 X37.500 Y0.000
G1 Z-5.000 F500
G1 X-27.500 F1500
G0 X37.500 Y0.000
G1 Z-10.000 F500
G1 X-27.500 F1500
G0 X37.500 Y0.000
G1 Z-15.000 F500
G1 X-27.500 F1500
G0 X37.500 Y0.000
G1 Z-20.000 F500
G1 X-27.500 F1500

; Cavity 2
G0 X27.500 Y0.000
G1 Z-5.000 F500
G1 X-37.500 F1500
G0 X27.500 Y0.000
G1 Z-10.000 F500
G1 X-37.500 F1500
G0 X27.500 Y0.000
G1 Z-15.000 F500
G1 X-37.500 F1500
G0 X27.500 Y0.000
G1 Z-20.000 F500
G1 X-37.500 F1500

; Solar panel cavity
G0 X-25.000 Y15.000
G1 Z-3.000 F500
G1 X25.000 F1500
G1 Y45.000
G1 X-25.000
G1 Y15.000
G1 Z-6.000 F500
G1 X25.000 F1500
G1 Y45.000
G1 X-25.000
G1 Y15.000

; Mounting holes
G81 X15.000 Y0.000 Z-20.000 R2 F500
G81 X-15.000 Y0.000 Z-20.000 R2 F500
G81 X0.000 Y15.000 Z-20.000 R2 F500
G81 X0.000 Y-15.000 Z-20.000 R2 F500

; End of program
G0 Z50
M5
G0 X0 Y0
M30