; COBRA Vertebra - L1 V19
; Material: Rohacell IG-51 25.0mm
; Tool: 2.0mm carbide end mill

G21
G90
G17
G54

; Safe start
G0 Z50
G0 X0 Y0
M3 S20000
G4 P2000

; Cut outer profile

; Pass 1/5, Z=-5.0
G0 X21.500 Y0
G1 Z-5.000 F500
G2 I-21.500 J0 F1500

; Pass 2/5, Z=-10.0
G0 X21.500 Y0
G1 Z-10.000 F500
G2 I-21.500 J0 F1500

; Pass 3/5, Z=-15.0
G0 X21.500 Y0
G1 Z-15.000 F500
G2 I-21.500 J0 F1500

; Pass 4/5, Z=-20.0
G0 X21.500 Y0
G1 Z-20.000 F500
G2 I-21.500 J0 F1500

; Pass 5/5, Z=-25.0
G0 X21.500 Y0
G1 Z-25.000 F500
G2 I-21.500 J0 F1500

; Battery cavities

; Cavity 1
G0 X38.750 Y0.000
G1 Z-5.000 F500
G1 X-26.250 F1500
G0 X38.750 Y0.000
G1 Z-10.000 F500
G1 X-26.250 F1500
G0 X38.750 Y0.000
G1 Z-15.000 F500
G1 X-26.250 F1500
G0 X38.750 Y0.000
G1 Z-20.000 F500
G1 X-26.250 F1500
G0 X38.750 Y0.000
G1 Z-25.000 F500
G1 X-26.250 F1500

; Cavity 2
G0 X26.250 Y0.000
G1 Z-5.000 F500
G1 X-38.750 F1500
G0 X26.250 Y0.000
G1 Z-10.000 F500
G1 X-38.750 F1500
G0 X26.250 Y0.000
G1 Z-15.000 F500
G1 X-38.750 F1500
G0 X26.250 Y0.000
G1 Z-20.000 F500
G1 X-38.750 F1500
G0 X26.250 Y0.000
G1 Z-25.000 F500
G1 X-38.750 F1500

; Mounting holes
G81 X17.500 Y0.000 Z-25.000 R2 F500
G81 X-17.500 Y0.000 Z-25.000 R2 F500
G81 X0.000 Y17.500 Z-25.000 R2 F500
G81 X0.000 Y-17.500 Z-25.000 R2 F500

; End of program
G0 Z50
M5
G0 X0 Y0
M30