; COBRA Vertebra - T4 V10
; Material: Rohacell IG-51 40.0mm
; Tool: 2.0mm carbide end mill

G21
G90
G17
G54

; Safe start
G0 Z50
G0 X0 Y0
M3 S20000
G4 P2000

; Cut outer profile

; Pass 1/8, Z=-5.0
G0 X39.000 Y0
G1 Z-5.000 F500
G2 I-39.000 J0 F1500

; Pass 2/8, Z=-10.0
G0 X39.000 Y0
G1 Z-10.000 F500
G2 I-39.000 J0 F1500

; Pass 3/8, Z=-15.0
G0 X39.000 Y0
G1 Z-15.000 F500
G2 I-39.000 J0 F1500

; Pass 4/8, Z=-20.0
G0 X39.000 Y0
G1 Z-20.000 F500
G2 I-39.000 J0 F1500

; Pass 5/8, Z=-25.0
G0 X39.000 Y0
G1 Z-25.000 F500
G2 I-39.000 J0 F1500

; Pass 6/8, Z=-30.0
G0 X39.000 Y0
G1 Z-30.000 F500
G2 I-39.000 J0 F1500

; Pass 7/8, Z=-35.0
G0 X39.000 Y0
G1 Z-35.000 F500
G2 I-39.000 J0 F1500

; Pass 8/8, Z=-40.0
G0 X39.000 Y0
G1 Z-40.000 F500
G2 I-39.000 J0 F1500

; Battery cavities

; Cavity 1
G0 X47.500 Y0.000
G1 Z-5.000 F500
G1 X-17.500 F1500
G0 X47.500 Y0.000
G1 Z-10.000 F500
G1 X-17.500 F1500
G0 X47.500 Y0.000
G1 Z-15.000 F500
G1 X-17.500 F1500
G0 X47.500 Y0.000
G1 Z-20.000 F500
G1 X-17.500 F1500
G0 X47.500 Y0.000
G1 Z-25.000 F500
G1 X-17.500 F1500
G0 X47.500 Y0.000
G1 Z-30.000 F500
G1 X-17.500 F1500
G0 X47.500 Y0.000
G1 Z-35.000 F500
G1 X-17.500 F1500
G0 X47.500 Y0.000
G1 Z-40.000 F500
G1 X-17.500 F1500

; Cavity 2
G0 X17.500 Y0.000
G1 Z-5.000 F500
G1 X-47.500 F1500
G0 X17.500 Y0.000
G1 Z-10.000 F500
G1 X-47.500 F1500
G0 X17.500 Y0.000
G1 Z-15.000 F500
G1 X-47.500 F1500
G0 X17.500 Y0.000
G1 Z-20.000 F500
G1 X-47.500 F1500
G0 X17.500 Y0.000
G1 Z-25.000 F500
G1 X-47.500 F1500
G0 X17.500 Y0.000
G1 Z-30.000 F500
G1 X-47.500 F1500
G0 X17.500 Y0.000
G1 Z-35.000 F500
G1 X-47.500 F1500
G0 X17.500 Y0.000
G1 Z-40.000 F500
G1 X-47.500 F1500

; Solar panel cavity
G0 X-25.000 Y35.000
G1 Z-3.000 F500
G1 X25.000 F1500
G1 Y65.000
G1 X-25.000
G1 Y35.000
G1 Z-6.000 F500
G1 X25.000 F1500
G1 Y65.000
G1 X-25.000
G1 Y35.000

; Mounting holes
G81 X35.000 Y0.000 Z-40.000 R2 F500
G81 X-35.000 Y0.000 Z-40.000 R2 F500
G81 X0.000 Y35.000 Z-40.000 R2 F500
G81 X0.000 Y-35.000 Z-40.000 R2 F500

; End of program
G0 Z50
M5
G0 X0 Y0
M30