; COBRA Vertebra - S1 V24
; Material: Rohacell IG-51 60.0mm
; Tool: 2.0mm carbide end mill

G21
G90
G17
G54

; Safe start
G0 Z50
G0 X0 Y0
M3 S20000
G4 P2000

; Cut outer profile

; Pass 1/12, Z=-5.0
G0 X49.000 Y0
G1 Z-5.000 F500
G2 I-49.000 J0 F1500

; Pass 2/12, Z=-10.0
G0 X49.000 Y0
G1 Z-10.000 F500
G2 I-49.000 J0 F1500

; Pass 3/12, Z=-15.0
G0 X49.000 Y0
G1 Z-15.000 F500
G2 I-49.000 J0 F1500

; Pass 4/12, Z=-20.0
G0 X49.000 Y0
G1 Z-20.000 F500
G2 I-49.000 J0 F1500

; Pass 5/12, Z=-25.0
G0 X49.000 Y0
G1 Z-25.000 F500
G2 I-49.000 J0 F1500

; Pass 6/12, Z=-30.0
G0 X49.000 Y0
G1 Z-30.000 F500
G2 I-49.000 J0 F1500

; Pass 7/12, Z=-35.0
G0 X49.000 Y0
G1 Z-35.000 F500
G2 I-49.000 J0 F1500

; Pass 8/12, Z=-40.0
G0 X49.000 Y0
G1 Z-40.000 F500
G2 I-49.000 J0 F1500

; Pass 9/12, Z=-45.0
G0 X49.000 Y0
G1 Z-45.000 F500
G2 I-49.000 J0 F1500

; Pass 10/12, Z=-50.0
G0 X49.000 Y0
G1 Z-50.000 F500
G2 I-49.000 J0 F1500

; Pass 11/12, Z=-55.0
G0 X49.000 Y0
G1 Z-55.000 F500
G2 I-49.000 J0 F1500

; Pass 12/12, Z=-60.0
G0 X49.000 Y0
G1 Z-60.000 F500
G2 I-49.000 J0 F1500

; Battery cavities

; Cavity 1
G0 X52.500 Y0.000
G1 Z-5.000 F500
G1 X-12.500 F1500
G0 X52.500 Y0.000
G1 Z-10.000 F500
G1 X-12.500 F1500
G0 X52.500 Y0.000
G1 Z-15.000 F500
G1 X-12.500 F1500
G0 X52.500 Y0.000
G1 Z-20.000 F500
G1 X-12.500 F1500
G0 X52.500 Y0.000
G1 Z-25.000 F500
G1 X-12.500 F1500
G0 X52.500 Y0.000
G1 Z-30.000 F500
G1 X-12.500 F1500
G0 X52.500 Y0.000
G1 Z-35.000 F500
G1 X-12.500 F1500
G0 X52.500 Y0.000
G1 Z-40.000 F500
G1 X-12.500 F1500
G0 X52.500 Y0.000
G1 Z-45.000 F500
G1 X-12.500 F1500
G0 X52.500 Y0.000
G1 Z-50.000 F500
G1 X-12.500 F1500
G0 X52.500 Y0.000
G1 Z-55.000 F500
G1 X-12.500 F1500
G0 X52.500 Y0.000
G1 Z-60.000 F500
G1 X-12.500 F1500

; Cavity 2
G0 X12.500 Y0.000
G1 Z-5.000 F500
G1 X-52.500 F1500
G0 X12.500 Y0.000
G1 Z-10.000 F500
G1 X-52.500 F1500
G0 X12.500 Y0.000
G1 Z-15.000 F500
G1 X-52.500 F1500
G0 X12.500 Y0.000
G1 Z-20.000 F500
G1 X-52.500 F1500
G0 X12.500 Y0.000
G1 Z-25.000 F500
G1 X-52.500 F1500
G0 X12.500 Y0.000
G1 Z-30.000 F500
G1 X-52.500 F1500
G0 X12.500 Y0.000
G1 Z-35.000 F500
G1 X-52.500 F1500
G0 X12.500 Y0.000
G1 Z-40.000 F500
G1 X-52.500 F1500
G0 X12.500 Y0.000
G1 Z-45.000 F500
G1 X-52.500 F1500
G0 X12.500 Y0.000
G1 Z-50.000 F500
G1 X-52.500 F1500
G0 X12.500 Y0.000
G1 Z-55.000 F500
G1 X-52.500 F1500
G0 X12.500 Y0.000
G1 Z-60.000 F500
G1 X-52.500 F1500

; Mounting holes
G81 X45.000 Y0.000 Z-60.000 R2 F500
G81 X-45.000 Y0.000 Z-60.000 R2 F500
G81 X0.000 Y45.000 Z-60.000 R2 F500
G81 X0.000 Y-45.000 Z-60.000 R2 F500

; End of program
G0 Z50
M5
G0 X0 Y0
M30