; COBRA Vertebra - C5 V4
; Material: Rohacell IG-51 30.0mm
; Tool: 2.0mm carbide end mill

G21
G90
G17
G54

; Safe start
G0 Z50
G0 X0 Y0
M3 S20000
G4 P2000

; Cut outer profile

; Pass 1/6, Z=-5.0
G0 X29.000 Y0
G1 Z-5.000 F500
G2 I-29.000 J0 F1500

; Pass 2/6, Z=-10.0
G0 X29.000 Y0
G1 Z-10.000 F500
G2 I-29.000 J0 F1500

; Pass 3/6, Z=-15.0
G0 X29.000 Y0
G1 Z-15.000 F500
G2 I-29.000 J0 F1500

; Pass 4/6, Z=-20.0
G0 X29.000 Y0
G1 Z-20.000 F500
G2 I-29.000 J0 F1500

; Pass 5/6, Z=-25.0
G0 X29.000 Y0
G1 Z-25.000 F500
G2 I-29.000 J0 F1500

; Pass 6/6, Z=-30.0
G0 X29.000 Y0
G1 Z-30.000 F500
G2 I-29.000 J0 F1500

; Mounting holes
G81 X25.000 Y0.000 Z-30.000 R2 F500
G81 X-25.000 Y0.000 Z-30.000 R2 F500
G81 X0.000 Y25.000 Z-30.000 R2 F500
G81 X0.000 Y-25.000 Z-30.000 R2 F500

; End of program
G0 Z50
M5
G0 X0 Y0
M30