; COBRA Vertebra - T1 V7
; Material: Rohacell IG-51 6.6000000000000005mm
; Tool: 2.0mm carbide end mill

G21
G90
G17
G54

; Safe start
G0 Z50
G0 X0 Y0
M3 S20000
G4 P2000

; Cut outer profile

; Pass 1/2, Z=-5.0
G0 X5.600 Y0
G1 Z-5.000 F500
G2 I-5.600 J0 F1500

; Pass 2/2, Z=-6.6000000000000005
G0 X5.600 Y0
G1 Z-6.600 F500
G2 I-5.600 J0 F1500

; Solar panel cavity
G0 X-25.000 Y1.600
G1 Z-3.000 F500
G1 X25.000 F1500
G1 Y31.600
G1 X-25.000
G1 Y1.600
G1 Z-6.000 F500
G1 X25.000 F1500
G1 Y31.600
G1 X-25.000
G1 Y1.600

; Mounting holes
G81 X1.600 Y0.000 Z-6.600 R2 F500
G81 X-1.600 Y0.000 Z-6.600 R2 F500
G81 X0.000 Y1.600 Z-6.600 R2 F500
G81 X0.000 Y-1.600 Z-6.600 R2 F500

; End of program
G0 Z50
M5
G0 X0 Y0
M30